X: 34396
T: Richard Brennan's
R: jig
M: 6/8
K: Dmajor
|:DFF FEF|AFF FEF|DFA dAF EFE GFE|
DFF FEF|AFF FEF|DFA dAF|EFE D2:|
|:f2d edc|dcB AFA|f2d edc|dfb a2g|
f2d edc|dcB AFA|DFA dAF|EFE D2:|

